svg/fluentui-system-icons/ic_fluent_diversity_28_filled.svg

<svg width="28" height="28" viewBox="0 0 28 28" fill="none" xmlns="http://www.w3.org/2000/svg">
<path d="M18 3C16.3431 3 15 4.34315 15 6V10C15 11.6569 16.3431 13 18 13H22C23.6569 13 25 11.6569 25 10V6C25 4.34315 23.6569 3 22 3H18ZM6.18789 4.12304C6.94101 2.62565 9.05898 2.62565 9.81211 4.12304L12.777 10.0179C13.4638 11.3834 12.4814 13 10.9649 13L5.03514 13C3.51861 13 2.53625 11.3834 3.22303 10.0179L6.18789 4.12304ZM3.95873 17.0552C4.36635 16.4968 4.88691 16.026 5.48681 15.6766L11.9986 23.0023C11.5956 23.5382 11.0874 23.9905 10.5046 24.3284L3.95873 17.0552ZM3 20C3 19.4737 3.0813 18.9665 3.23203 18.4901L9.00081 24.8998C8.67745 24.9655 8.34275 25 8 25C7.65013 25 7.30864 24.9641 6.97905 24.8957C6.82088 24.8629 6.66546 24.8226 6.51315 24.7752C4.63157 24.19 3.22647 22.5233 3.02491 20.5022C3.02311 20.4842 3.02141 20.4661 3.0198 20.4481C3.00669 20.3005 3 20.151 3 20ZM13 20C13 20.5533 12.9101 21.0857 12.7441 21.5833L6.98414 15.1033C7.31217 15.0356 7.65193 15 8 15C8.33739 15 8.66697 15.0334 8.98562 15.0971C8.99298 15.0986 9.00033 15.1001 9.00767 15.1016C11.1576 15.5415 12.8048 17.3613 12.9838 19.5951C12.9844 19.6019 12.9849 19.6086 12.9854 19.6153C12.9951 19.7423 13 19.8706 13 20ZM20.9538 15.2352C20.3585 14.9216 19.6415 14.9216 19.0462 15.2352L16.0544 16.811C15.4049 17.1531 15 17.8154 15 18.5358V21.4642C15 22.1846 15.4049 22.8469 16.0544 23.189L19.0462 24.7648C19.6415 25.0784 20.3585 25.0784 20.9538 24.7648L23.9456 23.189C24.5951 22.8469 25 22.1846 25 21.4642V18.5358C25 17.8154 24.5951 17.1531 23.9456 16.811L20.9538 15.2352Z" fill="#212121"/>
</svg>

<svg xmlns="http://www.w3.org/2000/svg" width="28" height="28"><path d="M18 3a3 3 0 0 0-3 3v4a3 3 0 0 0 3 3h4a3 3 0 0 0 3-3V6a3 3 0 0 0-3-3h-4ZM6.188 4.123c.753-1.497 2.871-1.497 3.624 0l2.965 5.895c.687 1.365-.296 2.982-1.812 2.982h-5.93c-1.516 0-2.499-1.617-1.812-2.982l2.965-5.895Zm-2.23 12.932a5.025 5.025 0 0 1 1.529-1.378l6.512 7.325a5.024 5.024 0 0 1-1.494 1.326l-6.546-7.273ZM3 20c0-.526.081-1.034.232-1.51l5.769 6.41a5.023 5.023 0 0 1-2.488-.125A5.004 5.004 0 0 1 3 20Zm10 0c0 .553-.09 1.086-.256 1.583l-5.76-6.48a5.022 5.022 0 0 1 2.024-.001 5.003 5.003 0 0 1 3.976 4.493l.001.02c.01.127.015.256.015.385Zm7.954-4.765a2.052 2.052 0 0 0-1.908 0l-2.992 1.576A1.954 1.954 0 0 0 15 18.536v2.928c0 .72.405 1.383 1.054 1.725l2.992 1.576a2.052 2.052 0 0 0 1.908 0l2.992-1.576A1.954 1.954 0 0 0 25 21.464v-2.928c0-.72-.405-1.383-1.054-1.725l-2.992-1.576Z"/></svg>
